flaticon/music/workstation-4.svg

<svg xmlns="http://www.w3.org/2000/svg" width="32" height="32" viewBox="0 0 24 24">
    <path d="M21.394531 7.570312C21.320312 7.492188 21.214844 7.449219 21.101562 7.449219L20.277344 7.449219C20.164062 7.449219 20.0625 7.492188 19.984375 7.570312L19.570312 7.984375C19.492188 8.0625 19.449219 8.167969 19.449219 8.277344L19.449219 9.101562C19.449219 9.214844 19.492188 9.320312 19.570312 9.394531L19.984375 9.808594C20.0625 9.886719 20.164062 9.929688 20.277344 9.929688L21.101562 9.929688C21.214844 9.929688 21.320312 9.886719 21.394531 9.808594L21.808594 9.394531C21.886719 9.320312 21.929688 9.214844 21.929688 9.101562L21.929688 8.277344C21.929688 8.167969 21.886719 8.0625 21.808594 7.984375zM21.101562 8.933594L20.933594 9.101562 20.445312 9.101562 20.277344 8.933594 20.277344 8.445312 20.445312 8.277344 20.933594 8.277344 21.101562 8.445312zM18.5 7.570312C18.421875 7.492188 18.316406 7.449219 18.207031 7.449219L17.378906 7.449219C17.269531 7.449219 17.164062 7.492188 17.085938 7.570312L16.671875 7.984375C16.59375 8.0625 16.550781 8.167969 16.550781 8.277344L16.550781 9.101562C16.550781 9.214844 16.59375 9.320312 16.671875 9.394531L17.085938 9.808594C17.164062 9.886719 17.269531 9.929688 17.378906 9.929688L18.207031 9.929688C18.316406 9.929688 18.421875 9.886719 18.5 9.808594L18.914062 9.394531C18.992188 9.320312 19.035156 9.214844 19.035156 9.101562L19.035156 8.277344C19.035156 8.167969 18.992188 8.0625 18.914062 7.984375zM18.207031 8.933594L18.035156 9.101562 17.550781 9.101562 17.378906 8.933594 17.378906 8.445312 17.550781 8.277344 18.035156 8.277344 18.207031 8.445312zM15.601562 7.570312C15.527344 7.492188 15.421875 7.449219 15.308594 7.449219L14.484375 7.449219C14.371094 7.449219 14.269531 7.492188 14.191406 7.570312L13.777344 7.984375C13.699219 8.0625 13.65625 8.167969 13.65625 8.277344L13.65625 9.101562C13.65625 9.214844 13.699219 9.320312 13.777344 9.394531L14.191406 9.808594C14.269531 9.886719 14.371094 9.929688 14.484375 9.929688L15.308594 9.929688C15.421875 9.929688 15.527344 9.886719 15.601562 9.808594L16.015625 9.394531C16.09375 9.320312 16.136719 9.214844 16.136719 9.101562L16.136719 8.277344C16.136719 8.167969 16.09375 8.0625 16.015625 7.984375zM15.308594 8.933594L15.140625 9.101562 14.652344 9.101562 14.484375 8.933594 14.484375 8.445312 14.652344 8.277344 15.140625 8.277344 15.308594 8.445312zM12.707031 7.570312C12.628906 7.492188 12.523438 7.449219 12.414062 7.449219L11.585938 7.449219C11.476562 7.449219 11.371094 7.492188 11.292969 7.570312L10.878906 7.984375C10.800781 8.0625 10.757812 8.167969 10.757812 8.277344L10.757812 9.101562C10.757812 9.214844 10.800781 9.320312 10.878906 9.394531L11.292969 9.808594C11.371094 9.886719 11.476562 9.929688 11.585938 9.929688L12.414062 9.929688C12.523438 9.929688 12.628906 9.886719 12.707031 9.808594L13.121094 9.394531C13.199219 9.320312 13.242188 9.214844 13.242188 9.101562L13.242188 8.277344C13.242188 8.167969 13.199219 8.0625 13.121094 7.984375zM12.414062 8.933594L12.242188 9.101562 11.757812 9.101562 11.585938 8.933594 11.585938 8.445312 11.757812 8.277344 12.242188 8.277344 12.414062 8.445312zM9.808594 7.570312C9.730469 7.492188 9.628906 7.449219 9.515625 7.449219L8.691406 7.449219C8.578125 7.449219 8.472656 7.492188 8.398438 7.570312L7.984375 7.984375C7.90625 8.0625 7.863281 8.167969 7.863281 8.277344L7.863281 9.101562C7.863281 9.214844 7.90625 9.320312 7.984375 9.394531L8.398438 9.808594C8.472656 9.886719 8.578125 9.929688 8.691406 9.929688L9.515625 9.929688C9.628906 9.929688 9.730469 9.886719 9.808594 9.808594L10.222656 9.394531C10.300781 9.320312 10.34375 9.214844 10.34375 9.101562L10.34375 8.277344C10.34375 8.167969 10.300781 8.0625 10.222656 7.984375zM9.515625 8.933594L9.347656 9.101562 8.859375 9.101562 8.691406 8.933594 8.691406 8.445312 8.859375 8.277344 9.347656 8.277344 9.515625 8.445312zM6.914062 7.570312C6.835938 7.492188 6.730469 7.449219 6.621094 7.449219L5.792969 7.449219C5.683594 7.449219 5.578125 7.492188 5.5 7.570312L5.085938 7.984375C5.007812 8.0625 4.964844 8.167969 4.964844 8.277344L4.964844 9.101562C4.964844 9.214844 5.007812 9.320312 5.085938 9.394531L5.5 9.808594C5.578125 9.886719 5.683594 9.929688 5.792969 9.929688L6.621094 9.929688C6.730469 9.929688 6.835938 9.886719 6.914062 9.808594L7.328125 9.394531C7.40625 9.320312 7.449219 9.214844 7.449219 9.101562L7.449219 8.277344C7.449219 8.167969 7.40625 8.0625 7.328125 7.984375zM6.621094 8.933594L6.449219 9.101562 5.964844 9.101562 5.792969 8.933594 5.792969 8.445312 5.964844 8.277344 6.449219 8.277344 6.621094 8.445312zM4.015625 7.570312C3.9375 7.492188 3.835938 7.449219 3.722656 7.449219L2.898438 7.449219C2.785156 7.449219 2.679688 7.492188 2.605469 7.570312L2.191406 7.984375C2.113281 8.0625 2.070312 8.167969 2.070312 8.277344L2.070312 9.101562C2.070312 9.214844 2.113281 9.320312 2.191406 9.394531L2.605469 9.808594C2.679688 9.886719 2.785156 9.929688 2.898438 9.929688L3.722656 9.929688C3.835938 9.929688 3.9375 9.886719 4.015625 9.808594L4.429688 9.394531C4.507812 9.320312 4.550781 9.214844 4.550781 9.101562L4.550781 8.277344C4.550781 8.167969 4.507812 8.0625 4.429688 7.984375zM3.722656 8.933594L3.554688 9.101562 3.066406 9.101562 2.898438 8.933594 2.898438 8.445312 3.066406 8.277344 3.554688 8.277344 3.722656 8.445312zM21.394531 4.671875C21.320312 4.59375 21.214844 4.550781 21.101562 4.550781L20.277344 4.550781C20.164062 4.550781 20.0625 4.59375 19.984375 4.671875L19.570312 5.085938C19.492188 5.164062 19.449219 5.269531 19.449219 5.378906L19.449219 6.207031C19.449219 6.316406 19.492188 6.421875 19.570312 6.5L19.984375 6.914062C20.0625 6.992188 20.164062 7.035156 20.277344 7.035156L21.101562 7.035156C21.214844 7.035156 21.320312 6.992188 21.394531 6.914062L21.808594 6.5C21.886719 6.421875 21.929688 6.316406 21.929688 6.207031L21.929688 5.378906C21.929688 5.269531 21.886719 5.164062 21.808594 5.085938zM21.101562 6.035156L20.933594 6.207031 20.445312 6.207031 20.277344 6.035156 20.277344 5.550781 20.445312 5.378906 20.933594 5.378906 21.101562 5.550781zM18.5 4.671875C18.421875 4.59375 18.316406 4.550781 18.207031 4.550781L17.378906 4.550781C17.269531 4.550781 17.164062 4.59375 17.085938 4.671875L16.671875 5.085938C16.59375 5.164062 16.550781 5.269531 16.550781 5.378906L16.550781 6.207031C16.550781 6.316406 16.59375 6.421875 16.671875 6.5L17.085938 6.914062C17.164062 6.992188 17.269531 7.035156 17.378906 7.035156L18.207031 7.035156C18.316406 7.035156 18.421875 6.992188 18.5 6.914062L18.914062 6.5C18.992188 6.421875 19.035156 6.316406 19.035156 6.207031L19.035156 5.378906C19.035156 5.269531 18.992188 5.164062 18.914062 5.085938zM18.207031 6.035156L18.035156 6.207031 17.550781 6.207031 17.378906 6.035156 17.378906 5.550781 17.550781 5.378906 18.035156 5.378906 18.207031 5.550781zM15.601562 4.671875C15.527344 4.59375 15.421875 4.550781 15.308594 4.550781L14.484375 4.550781C14.371094 4.550781 14.269531 4.59375 14.191406 4.671875L13.777344 5.085938C13.699219 5.164062 13.65625 5.269531 13.65625 5.378906L13.65625 6.207031C13.65625 6.316406 13.699219 6.421875 13.777344 6.5L14.191406 6.914062C14.269531 6.992188 14.371094 7.035156 14.484375 7.035156L15.308594 7.035156C15.421875 7.035156 15.527344 6.992188 15.601562 6.914062L16.015625 6.5C16.09375 6.421875 16.136719 6.316406 16.136719 6.207031L16.136719 5.378906C16.136719 5.269531 16.09375 5.164062 16.015625 5.085938zM15.308594 6.035156L15.140625 6.207031 14.652344 6.207031 14.484375 6.035156 14.484375 5.550781 14.652344 5.378906 15.140625 5.378906 15.308594 5.550781zM12.707031 4.671875C12.628906 4.59375 12.523438 4.550781 12.414062 4.550781L11.585938 4.550781C11.476562 4.550781 11.371094 4.59375 11.292969 4.671875L10.878906 5.085938C10.800781 5.164062 10.757812 5.269531 10.757812 5.378906L10.757812 6.207031C10.757812 6.316406 10.800781 6.421875 10.878906 6.5L11.292969 6.914062C11.371094 6.992188 11.476562 7.035156 11.585938 7.035156L12.414062 7.035156C12.523438 7.035156 12.628906 6.992188 12.707031 6.914062L13.121094 6.5C13.199219 6.421875 13.242188 6.316406 13.242188 6.207031L13.242188 5.378906C13.242188 5.269531 13.199219 5.164062 13.121094 5.085938zM12.414062 6.035156L12.242188 6.207031 11.757812 6.207031 11.585938 6.035156 11.585938 5.550781 11.757812 5.378906 12.242188 5.378906 12.414062 5.550781zM9.808594 4.671875C9.730469 4.59375 9.628906 4.550781 9.515625 4.550781L8.691406 4.550781C8.578125 4.550781 8.472656 4.59375 8.398438 4.671875L7.984375 5.085938C7.90625 5.164062 7.863281 5.269531 7.863281 5.378906L7.863281 6.207031C7.863281 6.316406 7.90625 6.421875 7.984375 6.5L8.398438 6.914062C8.472656 6.992188 8.578125 7.035156 8.691406 7.035156L9.515625 7.035156C9.628906 7.035156 9.730469 6.992188 9.808594 6.914062L10.222656 6.5C10.300781 6.421875 10.34375 6.316406 10.34375 6.207031L10.34375 5.378906C10.34375 5.269531 10.300781 5.164062 10.222656 5.085938zM9.515625 6.035156L9.347656 6.207031 8.859375 6.207031 8.691406 6.035156 8.691406 5.550781 8.859375 5.378906 9.347656 5.378906 9.515625 5.550781zM6.914062 4.671875C6.835938 4.59375 6.730469 4.550781 6.621094 4.550781L5.792969 4.550781C5.683594 4.550781 5.578125 4.59375 5.5 4.671875L5.085938 5.085938C5.007812 5.164062 4.964844 5.269531 4.964844 5.378906L4.964844 6.207031C4.964844 6.316406 5.007812 6.421875 5.085938 6.5L5.5 6.914062C5.578125 6.992188 5.683594 7.035156 5.792969 7.035156L6.621094 7.035156C6.730469 7.035156 6.835938 6.992188 6.914062 6.914062L7.328125 6.5C7.40625 6.421875 7.449219 6.316406 7.449219 6.207031L7.449219 5.378906C7.449219 5.269531 7.40625 5.164062 7.328125 5.085938zM6.621094 6.035156L6.449219 6.207031 5.964844 6.207031 5.792969 6.035156 5.792969 5.550781 5.964844 5.378906 6.449219 5.378906 6.621094 5.550781zM4.015625 4.671875C3.9375 4.59375 3.835938 4.550781 3.722656 4.550781L2.898438 4.550781C2.785156 4.550781 2.679688 4.59375 2.605469 4.671875L2.191406 5.085938C2.113281 5.164062 2.070312 5.269531 2.070312 5.378906L2.070312 6.207031C2.070312 6.316406 2.113281 6.421875 2.191406 6.5L2.605469 6.914062C2.679688 6.992188 2.785156 7.035156 2.898438 7.035156L3.722656 7.035156C3.835938 7.035156 3.9375 6.992188 4.015625 6.914062L4.429688 6.5C4.507812 6.421875 4.550781 6.316406 4.550781 6.207031L4.550781 5.378906C4.550781 5.269531 4.507812 5.164062 4.429688 5.085938zM3.722656 6.035156L3.554688 6.207031 3.066406 6.207031 2.898438 6.035156 2.898438 5.550781 3.066406 5.378906 3.554688 5.378906 3.722656 5.550781zM21.394531 1.777344C21.320312 1.699219 21.214844 1.65625 21.101562 1.65625L20.277344 1.65625C20.164062 1.65625 20.0625 1.699219 19.984375 1.777344L19.570312 2.191406C19.492188 2.269531 19.449219 2.375 19.449219 2.484375L19.449219 3.308594C19.449219 3.421875 19.492188 3.527344 19.570312 3.601562L19.984375 4.015625C20.0625 4.09375 20.164062 4.136719 20.277344 4.136719L21.101562 4.136719C21.214844 4.136719 21.320312 4.09375 21.394531 4.015625L21.808594 3.601562C21.886719 3.527344 21.929688 3.421875 21.929688 3.308594L21.929688 2.484375C21.929688 2.375 21.886719 2.269531 21.808594 2.191406zM21.101562 3.140625L20.933594 3.308594 20.445312 3.308594 20.277344 3.140625 20.277344 2.652344 20.445312 2.484375 20.933594 2.484375 21.101562 2.652344zM18.5 1.777344C18.421875 1.699219 18.316406 1.65625 18.207031 1.65625L17.378906 1.65625C17.269531 1.65625 17.164062 1.699219 17.085938 1.777344L16.671875 2.191406C16.59375 2.269531 16.550781 2.375 16.550781 2.484375L16.550781 3.308594C16.550781 3.421875 16.59375 3.527344 16.671875 3.601562L17.085938 4.015625C17.164062 4.09375 17.269531 4.136719 17.378906 4.136719L18.207031 4.136719C18.316406 4.136719 18.421875 4.09375 18.5 4.015625L18.914062 3.601562C18.992188 3.527344 19.035156 3.421875 19.035156 3.308594L19.035156 2.484375C19.035156 2.375 18.992188 2.269531 18.914062 2.191406zM18.207031 3.140625L18.035156 3.308594 17.550781 3.308594 17.378906 3.140625 17.378906 2.652344 17.550781 2.484375 18.035156 2.484375 18.207031 2.652344zM15.601562 1.777344C15.527344 1.699219 15.421875 1.65625 15.308594 1.65625L14.484375 1.65625C14.371094 1.65625 14.269531 1.699219 14.191406 1.777344L13.777344 2.191406C13.699219 2.269531 13.65625 2.375 13.65625 2.484375L13.65625 3.308594C13.65625 3.421875 13.699219 3.527344 13.777344 3.601562L14.191406 4.015625C14.269531 4.09375 14.371094 4.136719 14.484375 4.136719L15.308594 4.136719C15.421875 4.136719 15.527344 4.09375 15.601562 4.015625L16.015625 3.601562C16.09375 3.527344 16.136719 3.421875 16.136719 3.308594L16.136719 2.484375C16.136719 2.375 16.09375 2.269531 16.015625 2.191406zM15.308594 3.140625L15.140625 3.308594 14.652344 3.308594 14.484375 3.140625 14.484375 2.652344 14.652344 2.484375 15.140625 2.484375 15.308594 2.652344zM12.707031 1.777344C12.628906 1.699219 12.523438 1.65625 12.414062 1.65625L11.585938 1.65625C11.476562 1.65625 11.371094 1.699219 11.292969 1.777344L10.878906 2.191406C10.800781 2.269531 10.757812 2.375 10.757812 2.484375L10.757812 3.308594C10.757812 3.421875 10.800781 3.527344 10.878906 3.601562L11.292969 4.015625C11.371094 4.09375 11.476562 4.136719 11.585938 4.136719L12.414062 4.136719C12.523438 4.136719 12.628906 4.09375 12.707031 4.015625L13.121094 3.601562C13.199219 3.527344 13.242188 3.421875 13.242188 3.308594L13.242188 2.484375C13.242188 2.375 13.199219 2.269531 13.121094 2.191406zM12.414062 3.140625L12.242188 3.308594 11.757812 3.308594 11.585938 3.140625 11.585938 2.652344 11.757812 2.484375 12.242188 2.484375 12.414062 2.652344zM9.808594 1.777344C9.730469 1.699219 9.628906 1.65625 9.515625 1.65625L8.691406 1.65625C8.578125 1.65625 8.472656 1.699219 8.398438 1.777344L7.984375 2.191406C7.90625 2.269531 7.863281 2.375 7.863281 2.484375L7.863281 3.308594C7.863281 3.421875 7.90625 3.527344 7.984375 3.601562L8.398438 4.015625C8.472656 4.09375 8.578125 4.136719 8.691406 4.136719L9.515625 4.136719C9.628906 4.136719 9.730469 4.09375 9.808594 4.015625L10.222656 3.601562C10.300781 3.527344 10.34375 3.421875 10.34375 3.308594L10.34375 2.484375C10.34375 2.375 10.300781 2.269531 10.222656 2.191406zM9.515625 3.140625L9.347656 3.308594 8.859375 3.308594 8.691406 3.140625 8.691406 2.652344 8.859375 2.484375 9.347656 2.484375 9.515625 2.652344zM6.914062 1.777344C6.835938 1.699219 6.730469 1.65625 6.621094 1.65625L5.792969 1.65625C5.683594 1.65625 5.578125 1.699219 5.5 1.777344L5.085938 2.191406C5.007812 2.269531 4.964844 2.375 4.964844 2.484375L4.964844 3.308594C4.964844 3.421875 5.007812 3.527344 5.085938 3.601562L5.5 4.015625C5.578125 4.09375 5.683594 4.136719 5.792969 4.136719L6.621094 4.136719C6.730469 4.136719 6.835938 4.09375 6.914062 4.015625L7.328125 3.601562C7.40625 3.527344 7.449219 3.421875 7.449219 3.308594L7.449219 2.484375C7.449219 2.375 7.40625 2.269531 7.328125 2.191406zM6.621094 3.140625L6.449219 3.308594 5.964844 3.308594 5.792969 3.140625 5.792969 2.652344 5.964844 2.484375 6.449219 2.484375 6.621094 2.652344zM4.015625 1.777344C3.9375 1.699219 3.835938 1.65625 3.722656 1.65625L2.898438 1.65625C2.785156 1.65625 2.679688 1.699219 2.605469 1.777344L2.191406 2.191406C2.113281 2.269531 2.070312 2.375 2.070312 2.484375L2.070312 3.308594C2.070312 3.421875 2.113281 3.527344 2.191406 3.601562L2.605469 4.015625C2.679688 4.09375 2.785156 4.136719 2.898438 4.136719L3.722656 4.136719C3.835938 4.136719 3.9375 4.09375 4.015625 4.015625L4.429688 3.601562C4.507812 3.527344 4.550781 3.421875 4.550781 3.308594L4.550781 2.484375C4.550781 2.375 4.507812 2.269531 4.429688 2.191406zM3.722656 3.140625L3.554688 3.308594 3.066406 3.308594 2.898438 3.140625 2.898438 2.652344 3.066406 2.484375 3.554688 2.484375 3.722656 2.652344zM3.722656 3.140625"/>
    <path d="M 0 0 L 0 24 L 24 24 L 24 0 Z M 3.308594 23.171875 L 0.828125 23.171875 L 0.828125 14.070312 L 2.484375 14.070312 L 2.484375 20.691406 L 3.308594 20.691406 Z M 6.621094 23.171875 L 4.136719 23.171875 L 4.136719 20.691406 L 4.964844 20.691406 L 4.964844 14.070312 L 5.792969 14.070312 L 5.792969 20.691406 L 6.621094 20.691406 Z M 9.929688 23.171875 L 7.449219 23.171875 L 7.449219 20.691406 L 8.277344 20.691406 L 8.277344 14.070312 L 9.101562 14.070312 L 9.101562 20.691406 L 9.929688 20.691406 Z M 13.242188 23.171875 L 10.757812 23.171875 L 10.757812 20.691406 L 11.585938 20.691406 L 11.585938 14.070312 L 12.414062 14.070312 L 12.414062 20.691406 L 13.242188 20.691406 Z M 16.550781 23.171875 L 14.070312 23.171875 L 14.070312 20.691406 L 14.898438 20.691406 L 14.898438 14.070312 L 15.722656 14.070312 L 15.722656 20.691406 L 16.550781 20.691406 Z M 19.863281 23.171875 L 17.378906 23.171875 L 17.378906 20.691406 L 18.207031 20.691406 L 18.207031 14.070312 L 19.035156 14.070312 L 19.035156 20.691406 L 19.863281 20.691406 Z M 23.171875 23.171875 L 20.691406 23.171875 L 20.691406 20.691406 L 21.515625 20.691406 L 21.515625 14.070312 L 23.171875 14.070312 Z M 23.171875 13.242188 L 0.828125 13.242188 L 0.828125 11.585938 L 23.171875 11.585938 Z M 0.828125 10.757812 L 0.828125 0.828125 L 23.171875 0.828125 L 23.171875 10.757812 Z M 0.828125 10.757812"/>
</svg>

<svg xmlns="http://www.w3.org/2000/svg" width="32" height="32" viewBox="0 0 24 24">
    <path d="M21.395 7.57a.4.4 0 0 0-.293-.12h-.825a.407.407 0 0 0-.293.12l-.414.414a.414.414 0 0 0-.12.293v.825a.4.4 0 0 0 .12.293l.414.414c.078.078.18.12.293.12h.825a.4.4 0 0 0 .293-.12l.414-.414a.4.4 0 0 0 .12-.293v-.825a.414.414 0 0 0-.12-.293zm-.293 1.364l-.168.168h-.489l-.168-.168v-.489l.168-.168h.489l.168.168zm0 0M18.5 7.57a.414.414 0 0 0-.293-.12h-.828a.414.414 0 0 0-.293.12l-.414.414a.414.414 0 0 0-.121.293v.825a.4.4 0 0 0 .12.293l.415.414a.414.414 0 0 0 .293.12h.828c.11 0 .215-.042.293-.12l.414-.414a.4.4 0 0 0 .121-.293v-.825a.414.414 0 0 0-.12-.293zm-.293 1.364l-.172.168h-.484l-.172-.168v-.489l.172-.168h.484l.172.168zm0 0M15.602 7.57a.4.4 0 0 0-.293-.12h-.825a.407.407 0 0 0-.293.12l-.414.414a.414.414 0 0 0-.12.293v.825a.4.4 0 0 0 .12.293l.414.414c.079.078.18.12.293.12h.825a.4.4 0 0 0 .293-.12l.414-.414a.4.4 0 0 0 .12-.293v-.825a.414.414 0 0 0-.12-.293zm-.293 1.364l-.168.168h-.489l-.168-.168v-.489l.168-.168h.489l.168.168zm0 0M12.707 7.57a.414.414 0 0 0-.293-.12h-.828a.414.414 0 0 0-.293.12l-.414.414a.414.414 0 0 0-.121.293v.825a.4.4 0 0 0 .12.293l.415.414a.414.414 0 0 0 .293.12h.828c.11 0 .215-.042.293-.12l.414-.414a.4.4 0 0 0 .121-.293v-.825a.414.414 0 0 0-.12-.293zm-.293 1.364l-.172.168h-.484l-.172-.168v-.489l.172-.168h.484l.172.168zm0 0M9.809 7.57a.407.407 0 0 0-.293-.12H8.69a.4.4 0 0 0-.293.12l-.414.414a.414.414 0 0 0-.12.293v.825a.4.4 0 0 0 .12.293l.414.414a.4.4 0 0 0 .293.12h.825a.407.407 0 0 0 .293-.12l.414-.414a.4.4 0 0 0 .12-.293v-.825a.414.414 0 0 0-.12-.293zm-.293 1.364l-.168.168h-.489l-.168-.168v-.489l.168-.168h.489l.168.168zm0 0M6.914 7.57a.414.414 0 0 0-.293-.12h-.828a.414.414 0 0 0-.293.12l-.414.414a.414.414 0 0 0-.121.293v.825a.4.4 0 0 0 .12.293l.415.414a.414.414 0 0 0 .293.12h.828c.11 0 .215-.042.293-.12l.414-.414a.4.4 0 0 0 .121-.293v-.825a.414.414 0 0 0-.12-.293zm-.293 1.364l-.172.168h-.484l-.172-.168v-.489l.172-.168h.484l.172.168zm0 0M4.016 7.57a.407.407 0 0 0-.293-.12h-.825a.4.4 0 0 0-.293.12l-.414.414a.414.414 0 0 0-.12.293v.825a.4.4 0 0 0 .12.293l.414.414a.4.4 0 0 0 .293.12h.825a.407.407 0 0 0 .293-.12l.414-.414a.4.4 0 0 0 .12-.293v-.825a.414.414 0 0 0-.12-.293zm-.293 1.364l-.168.168h-.489l-.168-.168v-.489l.168-.168h.489l.168.168zm0 0M21.395 4.672a.4.4 0 0 0-.293-.121h-.825a.407.407 0 0 0-.293.12l-.414.415a.414.414 0 0 0-.12.293v.828c0 .11.042.215.12.293l.414.414c.078.078.18.121.293.121h.825a.4.4 0 0 0 .293-.12l.414-.415a.414.414 0 0 0 .12-.293v-.828a.414.414 0 0 0-.12-.293zm-.293 1.363l-.168.172h-.489l-.168-.172v-.484l.168-.172h.489l.168.172zm0 0M18.5 4.672a.414.414 0 0 0-.293-.121h-.828a.414.414 0 0 0-.293.12l-.414.415a.414.414 0 0 0-.121.293v.828c0 .11.043.215.12.293l.415.414a.414.414 0 0 0 .293.121h.828c.11 0 .215-.043.293-.12l.414-.415a.414.414 0 0 0 .121-.293v-.828a.414.414 0 0 0-.12-.293zm-.293 1.363l-.172.172h-.484l-.172-.172v-.484l.172-.172h.484l.172.172zm0 0M15.602 4.672a.4.4 0 0 0-.293-.121h-.825a.407.407 0 0 0-.293.12l-.414.415a.414.414 0 0 0-.12.293v.828c0 .11.042.215.12.293l.414.414c.079.078.18.121.293.121h.825a.4.4 0 0 0 .293-.12l.414-.415a.414.414 0 0 0 .12-.293v-.828a.414.414 0 0 0-.12-.293zm-.293 1.363l-.168.172h-.489l-.168-.172v-.484l.168-.172h.489l.168.172zm0 0M12.707 4.672a.414.414 0 0 0-.293-.121h-.828a.414.414 0 0 0-.293.12l-.414.415a.414.414 0 0 0-.121.293v.828c0 .11.043.215.12.293l.415.414a.414.414 0 0 0 .293.121h.828c.11 0 .215-.043.293-.12l.414-.415a.414.414 0 0 0 .121-.293v-.828a.414.414 0 0 0-.12-.293zm-.293 1.363l-.172.172h-.484l-.172-.172v-.484l.172-.172h.484l.172.172zm0 0M9.809 4.672a.407.407 0 0 0-.293-.121H8.69a.4.4 0 0 0-.293.12l-.414.415a.414.414 0 0 0-.12.293v.828c0 .11.042.215.12.293l.414.414a.4.4 0 0 0 .293.121h.825a.407.407 0 0 0 .293-.12l.414-.415a.414.414 0 0 0 .12-.293v-.828a.414.414 0 0 0-.12-.293zm-.293 1.363l-.168.172h-.489l-.168-.172v-.484l.168-.172h.489l.168.172zm0 0M6.914 4.672a.414.414 0 0 0-.293-.121h-.828a.414.414 0 0 0-.293.12l-.414.415a.414.414 0 0 0-.121.293v.828c0 .11.043.215.12.293l.415.414a.414.414 0 0 0 .293.121h.828c.11 0 .215-.043.293-.12l.414-.415a.414.414 0 0 0 .121-.293v-.828a.414.414 0 0 0-.12-.293zm-.293 1.363l-.172.172h-.484l-.172-.172v-.484l.172-.172h.484l.172.172zm0 0M4.016 4.672a.407.407 0 0 0-.293-.121h-.825a.4.4 0 0 0-.293.12l-.414.415a.414.414 0 0 0-.12.293v.828c0 .11.042.215.12.293l.414.414a.4.4 0 0 0 .293.121h.825a.407.407 0 0 0 .293-.12L4.43 6.5a.414.414 0 0 0 .12-.293v-.828a.414.414 0 0 0-.12-.293zm-.293 1.363l-.168.172h-.489l-.168-.172v-.484l.168-.172h.489l.168.172zm0 0M21.395 1.777a.4.4 0 0 0-.293-.12h-.825a.407.407 0 0 0-.293.12l-.414.414a.414.414 0 0 0-.12.293v.825a.4.4 0 0 0 .12.293l.414.414c.078.078.18.12.293.12h.825a.4.4 0 0 0 .293-.12l.414-.414a.4.4 0 0 0 .12-.293v-.825a.414.414 0 0 0-.12-.293zm-.293 1.364l-.168.168h-.489l-.168-.168v-.489l.168-.168h.489l.168.168zm0 0M18.5 1.777a.414.414 0 0 0-.293-.12h-.828a.414.414 0 0 0-.293.12l-.414.414a.414.414 0 0 0-.121.293v.825a.4.4 0 0 0 .12.293l.415.414a.414.414 0 0 0 .293.12h.828c.11 0 .215-.042.293-.12l.414-.414a.4.4 0 0 0 .121-.293v-.825a.414.414 0 0 0-.12-.293zm-.293 1.364l-.172.168h-.484l-.172-.168v-.489l.172-.168h.484l.172.168zm0 0M15.602 1.777a.4.4 0 0 0-.293-.12h-.825a.407.407 0 0 0-.293.12l-.414.414a.414.414 0 0 0-.12.293v.825a.4.4 0 0 0 .12.293l.414.414c.079.078.18.12.293.12h.825a.4.4 0 0 0 .293-.12l.414-.414a.4.4 0 0 0 .12-.293v-.825a.414.414 0 0 0-.12-.293zm-.293 1.364l-.168.168h-.489l-.168-.168v-.489l.168-.168h.489l.168.168zm0 0M12.707 1.777a.414.414 0 0 0-.293-.12h-.828a.414.414 0 0 0-.293.12l-.414.414a.414.414 0 0 0-.121.293v.825a.4.4 0 0 0 .12.293l.415.414a.414.414 0 0 0 .293.12h.828c.11 0 .215-.042.293-.12l.414-.414a.4.4 0 0 0 .121-.293v-.825a.414.414 0 0 0-.12-.293zm-.293 1.364l-.172.168h-.484l-.172-.168v-.489l.172-.168h.484l.172.168zm0 0M9.809 1.777a.407.407 0 0 0-.293-.12H8.69a.4.4 0 0 0-.293.12l-.414.414a.414.414 0 0 0-.12.293v.825a.4.4 0 0 0 .12.293l.414.414a.4.4 0 0 0 .293.12h.825a.407.407 0 0 0 .293-.12l.414-.414a.4.4 0 0 0 .12-.293v-.825a.414.414 0 0 0-.12-.293zm-.293 1.364l-.168.168h-.489l-.168-.168v-.489l.168-.168h.489l.168.168zm0 0M6.914 1.777a.414.414 0 0 0-.293-.12h-.828a.414.414 0 0 0-.293.12l-.414.414a.414.414 0 0 0-.121.293v.825a.4.4 0 0 0 .12.293l.415.414a.414.414 0 0 0 .293.12h.828c.11 0 .215-.042.293-.12l.414-.414a.4.4 0 0 0 .121-.293v-.825a.414.414 0 0 0-.12-.293zm-.293 1.364l-.172.168h-.484l-.172-.168v-.489l.172-.168h.484l.172.168zm0 0M4.016 1.777a.407.407 0 0 0-.293-.12h-.825a.4.4 0 0 0-.293.12l-.414.414a.414.414 0 0 0-.12.293v.825a.4.4 0 0 0 .12.293l.414.414a.4.4 0 0 0 .293.12h.825a.407.407 0 0 0 .293-.12l.414-.414a.4.4 0 0 0 .12-.293v-.825a.414.414 0 0 0-.12-.293zm-.293 1.364l-.168.168h-.489l-.168-.168v-.489l.168-.168h.489l.168.168zm0 0"/>
    <path d="M0 0v24h24V0zm3.309 23.172H.829V14.07h1.655v6.621h.825zm3.312 0H4.137v-2.48h.828V14.07h.828v6.621h.828zm3.309 0H7.45v-2.48h.827V14.07h.825v6.621h.828zm3.312 0h-2.484v-2.48h.828V14.07h.828v6.621h.828zm3.309 0h-2.48v-2.48h.827V14.07h.825v6.621h.828zm3.312 0H17.38v-2.48h.828V14.07h.828v6.621h.828zm3.309 0h-2.48v-2.48h.824V14.07h1.656zm0-9.93H.828v-1.656h22.344zM.828 10.758V.828h22.344v9.93zm0 0"/>
</svg>
